pretzel/src/assets/images/facebook-logo.svg

<svg width="11" height="23" viewBox="0 0 11 23" fill="none" xmlns="http://www.w3.org/2000/svg">
<path opacity="0.4" fill-rule="evenodd" clip-rule="evenodd" d="M7.02978 22.55V11.4963H10.1573L10.5718 7.6872H7.02978L7.03509 5.78069C7.03509 4.78721 7.13184 4.25488 8.59443 4.25488H10.5496V0.445312H7.42166C3.66445 0.445312 2.342 2.29315 2.342 5.40064V7.68763H0V11.4968H2.342V22.55H7.02978Z" fill="white"/>
</svg>

<svg width="11" height="23" fill="none" xmlns="http://www.w3.org/2000/svg"><path opacity=".4" fill-rule="evenodd" clip-rule="evenodd" d="M7.03 22.55V11.496h3.127l.415-3.809H7.03l.005-1.906c0-.994.097-1.526 1.56-1.526h1.955V.445H7.422c-3.758 0-5.08 1.848-5.08 4.956v2.287H0v3.809h2.342V22.55H7.03z" fill="#fff"/></svg>
